common/svg/secrets-icon.svg

<svg fill="none" height="21" viewBox="0 0 20 21" width="20" xmlns="http://www.w3.org/2000/svg"><path d="m17.8388 2.18335-1.7486 1.74856m0 0 2.6229 2.62284-3.06 3.05998-2.6229-2.62284m3.06-3.05998-3.06 3.05998m-3.59325 3.59331c.45143.4454.81025.9757 1.05595 1.5604.2456.5847.3731 1.2122.3753 1.8463.0021.6342-.1212 1.2625-.363 1.8488-.2417.5863-.59696 1.1191-1.04539 1.5675s-.98114.8037-1.56745 1.0454-1.21464.3651-1.84881.3629c-.63418-.0021-1.26167-.1296-1.84634-.3753-.58468-.2456-1.11499-.6044-1.56041-1.0559-.87591-.9069-1.36059-2.1215-1.34963-3.3823.01095-1.2608.51666-2.4668 1.40821-3.3584.89154-.89151 2.09758-1.39722 3.35836-1.40818 1.26079-.01095 2.47543.47372 3.38234 1.34968zm0 0 3.59325-3.59331" stroke="#000" stroke-linecap="round" stroke-linejoin="round" stroke-width="1.75"/></svg>

<svg width="20" height="21" viewBox="0 0 20 21" fill="none" xmlns="http://www.w3.org/2000/svg">
<path d="M17.8388 2.18335L16.0902 3.93191M16.0902 3.93191L18.7131 6.55475L15.6531 9.61473L13.0302 6.99189M16.0902 3.93191L13.0302 6.99189M9.43695 10.5852C9.88838 11.0306 10.2472 11.5609 10.4929 12.1456C10.7385 12.7303 10.866 13.3578 10.8682 13.9919C10.8703 14.6261 10.747 15.2544 10.5052 15.8407C10.2635 16.427 9.90824 16.9598 9.45981 17.4082C9.01138 17.8566 8.47867 18.2119 7.89236 18.4536C7.30605 18.6953 6.67772 18.8187 6.04355 18.8165C5.40937 18.8144 4.78188 18.6869 4.19721 18.4412C3.61253 18.1956 3.08222 17.8368 2.6368 17.3853C1.76089 16.4784 1.27621 15.2638 1.28717 14.003C1.29812 12.7422 1.80383 11.5362 2.69538 10.6446C3.58692 9.75309 4.79296 9.24738 6.05374 9.23642C7.31453 9.22547 8.52917 9.71014 9.43608 10.5861L9.43695 10.5852ZM9.43695 10.5852L13.0302 6.99189" stroke="black" stroke-width="1.75" stroke-linecap="round" stroke-linejoin="round"/>
</svg>
